X: 3
T: Roving Sailor
P: piffero primo b0043
O: safd 034 mod
%R: hornpipe, reel
F: http://ancients.sudburymuster.org/mus/ssp/pdf/seamedF.pdf
Z: 2019 John Chambers <jc:trillian.mit.edu>
M: 2/4
L: 1/16
K: D
(3ABc \
| d3B G2A2 | B2B2 (3BcBA2 | d3B G2A2 | B2e2 e2g2 \
| d3B G2A2 | B2B2 (3BcBA2 | G3g f2g2 | e2d2 e2 :|
|: z2 \
| d3g f2g2 | e2d2 (3BcBA2 | G3g f2g2 | a2f2 a2z2 \
| d3g f2g2 | e2d2 e2g2    | d3B G2A2 | B2e2 e2 :|


